images/socials-icon-1.svg

<svg width="18" height="18" viewBox="0 0 18 18" fill="none" xmlns="http://www.w3.org/2000/svg">
<g clip-path="url(#clip0_3840_18426)">
<path d="M11.9981 2.98875H13.6414V0.12675C13.3579 0.08775 12.3829 0 11.2474 0C8.87813 0 7.25513 1.49025 7.25513 4.22925V6.75H4.64062V9.9495H7.25513V18H10.4606V9.95025H12.9694L13.3676 6.75075H10.4599V4.5465C10.4606 3.62175 10.7096 2.98875 11.9981 2.98875V2.98875Z" fill="#DCB62F"/>
</g>
<defs>
<clipPath id="clip0_3840_18426">
<rect width="18" height="18" fill="white"/>
</clipPath>
</defs>
</svg>

<svg width="18" height="18" fill="none" xmlns="http://www.w3.org/2000/svg"><g clip-path="url(#clip0_3840_18426)"><path d="M11.998 2.989h1.643V.127A21.22 21.22 0 0011.247 0C8.878 0 7.255 1.49 7.255 4.23v2.52H4.641v3.2h2.614V18h3.206V9.95h2.508l.399-3.2H10.46V4.547c0-.924.25-1.557 1.538-1.557z" fill="#DCB62F"/></g><defs><clipPath id="clip0_3840_18426"><path fill="#fff" d="M0 0h18v18H0z"/></clipPath></defs></svg>
